cssgg/comedy-central.svg

<svg
  width="24"
  height="24"
  viewBox="0 0 24 24"
  fill="none"
  xmlns="http://www.w3.org/2000/svg"
>
  <path
    d="M10.5445 19C14.4105 19 17.5445 15.866 17.5445 12C17.5445 8.13401 14.4105 5 10.5445 5C8.61148 5 6.86148 5.7835 5.59473 7.05025L3.47343 4.92896L3.45544 4.94694C5.26649 3.12672 7.7739 2 10.5445 2C16.0673 2 20.5445 6.47715 20.5445 12C20.5445 17.5228 16.0673 22 10.5445 22C7.78307 22 5.28308 20.8807 3.47343 19.0711L5.59475 16.9498C6.8615 18.2165 8.61149 19 10.5445 19Z"
    fill="currentColor"
  />
  <path
    d="M10.5445 14C11.1376 14 11.6704 13.7418 12.0367 13.3317L14.1594 15.4544C13.249 16.4068 11.966 17 10.5445 17C7.78305 17 5.54447 14.7614 5.54447 12C5.54447 9.23858 7.78305 7 10.5445 7C11.966 7 13.249 7.59323 14.1594 8.54563L12.0367 10.6683C11.6704 10.2582 11.1376 10 10.5445 10C9.4399 10 8.54447 10.8954 8.54447 12C8.54447 13.1046 9.4399 14 10.5445 14Z"
    fill="currentColor"
  />
</svg>

<svg viewBox="0 0 24 24" xmlns="http://www.w3.org/2000/svg"><g><path d="M10.54 19c3.86 0 7-3.14 7-7 0-3.87-3.14-7-7-7 -1.94 0-3.69.78-4.95 2.05L3.46 4.92l-.02.01c1.81-1.83 4.31-2.95 7.08-2.95 5.52 0 10 4.47 10 10 0 5.52-4.48 10-10 10 -2.77 0-5.27-1.12-7.08-2.93l2.12-2.13c1.26 1.26 3.01 2.05 4.94 2.05Z"/><path d="M10.54 14c.59 0 1.12-.26 1.49-.67l2.12 2.12c-.92.95-2.2 1.54-3.62 1.54 -2.77 0-5.01-2.24-5.01-5 0-2.77 2.23-5 5-5 1.42 0 2.7.59 3.61 1.54L12 10.65c-.37-.42-.9-.67-1.5-.67 -1.11 0-2.01.89-2.01 2 0 1.1.89 2 2 2Z"/></g></svg>
